static/asset/article-back-to-topic-mobile.svg

<?xml version="1.0" encoding="UTF-8"?>
<svg width="28px" height="28px" viewBox="0 0 28 28" version="1.1" xmlns="http://www.w3.org/2000/svg" xmlns:xlink="http://www.w3.org/1999/xlink">
    <!-- Generator: Sketch Beta 46 (44423) - http://www.bohemiancoding.com/sketch -->
    <title>topic_mobile</title>
    <desc>Created with Sketch Beta.</desc>
    <defs></defs>
    <g id="Tool-bar_phase1" stroke="none" stroke-width="1" fill="none" fill-rule="evenodd">
        <path d="M3.06005859,27.2407408 L24.9359207,27.2407408 L24.9359207,0.760009766 L3.06005859,0.760009766 L3.06005859,27.2407408 Z M8.10609078,8.39468563 L19.8880655,8.39468563 L19.8880655,6.09225114 L8.10609078,6.09225114 L8.10609078,8.39468563 Z M8.10609078,15.0413017 L19.8880655,15.0413017 L19.8880655,12.7388672 L8.10609078,12.7388672 L8.10609078,15.0413017 Z M8.10609078,21.9084994 L14.9368287,21.9084994 L14.9368287,19.6060649 L8.10609078,19.6060649 L8.10609078,21.9084994 Z" id="topic_mobile" fill="#A67A44"></path>
    </g>
</svg>

<svg width="28" height="28" xmlns="http://www.w3.org/2000/svg"><path d="M3.06 27.24h21.876V.76H3.06v26.48zM8.106 8.396h11.782V6.092H8.106v2.303zm0 6.646h11.782V12.74H8.106v2.302zm0 6.867h6.83v-2.302h-6.83v2.302z" fill="#A67A44" fill-rule="evenodd"/></svg>
